X:3
T:Glik
C:Alexander Olshanetsky 1930
C:From Pete Sokolow, Klez Kamp 2001
R:Waltz
M:3/4
K:Cm
L: 1/4
| "Cm" G3 | "Fm" C D E| "Cm" G3 | "Fm" C D E| "Cm" G c "G7" d| "Cm" e "G7" d "Cm"c| "Cm"G3-|"C7"G3|
"Fm"c3| "Bbm"F G A| "Fm"c3| "Bbm"F G A| "Fm" c =B c| "Fm" d c =B | "Fm6/D" _A3 | "G7" G3|
"Cm" G3 | "Fm" C D E| "Cm" G3 | "Fm" C D E| "Cm" G c "G7" d| "Cm" e "G7" d "Cm"c| "Ab7"e3| \
L: 1/8
  "G7"d3 de=e|
L: 1/4
"Fm" f f> e| "G7"d/f/ e > d| "Cm"e e > d| "D7" c/e/ d > c| "Dm7b5" d d> c| "G7"=B/c/ d e| \
  "Cm" c3-| c3|]
